Point/img/best5.svg

<svg width="120" height="129" viewBox="0 0 120 129" fill="none" xmlns="http://www.w3.org/2000/svg">
<path fill-rule="evenodd" clip-rule="evenodd" d="M70.838 2.45555C56.3698 1.01031 29.2743 -3.27122 17.2203 4.65562C5.05884 12.6531 2.78466 28.0242 0.439934 42.1333C-1.66564 54.8033 4.29472 66.6164 7.57549 79.0472C11.1396 92.5515 3.74394 109.959 14.0893 119.596C24.8846 129.652 51.4374 129.055 66.2198 126.963C80.1663 124.99 84.661 115.012 96.2221 107.162C108.115 99.0869 111.859 109.349 116.162 95.8643C120.469 82.3694 122.03 57.6053 116.162 44.681C111.038 33.3946 108.638 20.5876 98.863 12.7359C88.7574 4.61845 83.8682 3.75717 70.838 2.45555Z" fill="#FFEEF2"/>
<path d="M43.1389 45.5354V47.932C43.1389 51.8529 47.9321 57.5185 50.3287 59.9151L52.1262 81.5085C52.2886 83.4624 53.1796 85.2838 54.6225 86.6112C56.0654 87.9386 57.9546 88.6751 59.9152 88.6743C61.8758 88.6751 63.765 87.9386 65.2078 86.6112C66.6507 85.2838 67.5418 83.4624 67.7041 81.5085L69.5016 59.9151C71.8982 57.5185 76.6914 51.8529 76.6914 47.932V45.5354" stroke="#00325A" stroke-width="4.79321" stroke-linecap="round" stroke-linejoin="round"/>
<path d="M59.9153 62.3117V67.1049" stroke="#00325A" stroke-width="4.79321" stroke-linecap="round" stroke-linejoin="round"/>
<path d="M59.9153 50.3286C69.1805 50.3286 76.6915 48.1826 76.6915 45.5354C76.6915 42.8882 69.1805 40.7422 59.9153 40.7422C50.65 40.7422 43.139 42.8882 43.139 45.5354C43.139 48.1826 50.65 50.3286 59.9153 50.3286Z" stroke="#00325A" stroke-width="4.79321" stroke-linecap="round" stroke-linejoin="round"/>
</svg>

<svg width="120" height="129" fill="none" xmlns="http://www.w3.org/2000/svg"><path fill-rule="evenodd" clip-rule="evenodd" d="M70.838 2.456C56.37 1.01 29.274-3.271 17.22 4.656 5.06 12.653 2.785 28.024.44 42.133c-2.106 12.67 3.855 24.483 7.135 36.914 3.565 13.505-3.831 30.912 6.514 40.549 10.796 10.056 37.348 9.459 52.13 7.367 13.947-1.973 18.442-11.951 30.003-19.801 11.893-8.075 15.637 2.187 19.94-11.298 4.307-13.495 5.868-38.259 0-51.183-5.124-11.286-7.524-24.093-17.299-31.945-10.106-8.118-14.995-8.979-28.025-10.28z" fill="#FFEEF2"/><path d="M43.139 45.535v2.397c0 3.92 4.793 9.587 7.19 11.983l1.797 21.593a7.813 7.813 0 007.79 7.166 7.812 7.812 0 007.788-7.166l1.798-21.593c2.396-2.396 7.19-8.062 7.19-11.983v-2.397M59.915 62.312v4.793" stroke="#00325A" stroke-width="4.793" stroke-linecap="round" stroke-linejoin="round"/><path d="M59.915 50.329c9.265 0 16.777-2.146 16.777-4.794 0-2.647-7.511-4.793-16.777-4.793-9.265 0-16.776 2.146-16.776 4.793 0 2.648 7.511 4.794 16.776 4.794z" stroke="#00325A" stroke-width="4.793" stroke-linecap="round" stroke-linejoin="round"/></svg>
